X: 21391
Q: "Lively"
M: C|
L: 1/8
K: D
|: de |\
fedB ABde | fedB d3B | A3B ABde | f2e2 e2de |\
fedB ABde | fedB d3A | B3G A3E | F2D2 D2 :|


